icon-svg/ring-doorbell.svg

<svg xmlns="http://www.w3.org/2000/svg" viewBox="0 0 24 24"><path fill="#44739e" d="m8.82 8.954.025-3.416-1.624.002-.005 3.422Zm.217-.004.008-3.412h.224L9.261 8.95Zm4.512 6.018a1.568 1.568 0 1 0-2.676 1.109 1.568 1.568 0 0 0 2.676-1.109m.784 0a2.352 2.352 0 1 0-4.015 1.663 2.351 2.351 0 0 0 4.015-1.663m-2.352-1.991h.032a1.969 1.969 0 1 1-1.413 3.377 1.982 1.982 0 0 1 1.381-3.377m4.8-3.677H7.209v12.6l.058.052.076.048h1.549l6.272-.008h1.528l.055-.063.037-.087c.016-4.158-.004-8.415-.003-12.542m-1.625 12.12-6.269-.006c-.069-3.658-.036-7.32-.042-10.979l6.311.045Zm-.455-12.464h.259l-.031-3.418h-.228ZM8.845 5.194v-.001h7.839l.097-.003.005-3.19-1.669.002H8.845l-1.631.007.001 3.192Zm.816 1.99a2.8 2.8 0 0 0 .493 1.45h3.606a2.93 2.93 0 0 0 .51-1.45 2.36 2.36 0 0 0-.51-1.411h-3.606a2.35 2.35 0 0 0-.493 1.411m2.32-1.176a1.176 1.176 0 1 1-.831 2.007 1.177 1.177 0 0 1 .831-2.007m.005 1.824a.667.667 0 0 0 .666-.667.667.667 0 0 0-.667-.666.667.667 0 0 0-.665.668.666.666 0 0 0 .666.665m3.176 1.124 1.619.004.001-3.424-1.632-.005Z"/></svg>

<?xml version="1.0" encoding="UTF-8"?>
<svg width="24px" fill="#44739e" height="24px" viewBox="0 0 24 23" version="1.1" xmlns="http://www.w3.org/2000/svg" xmlns:xlink="http://www.w3.org/1999/xlink">
            <path d="M 8.82,8.954 8.845,5.538 7.221,5.54 7.216,8.962 Z m 0.2165616,-0.00418 0.00852,-3.4119893 0.2239993,5.591e-4 -0.00852,3.4119892 z M 13.549,14.968 a 1.568,1.568 0 1 0 -2.676,1.109 1.568,1.568 0 0 0 2.676,-1.109 z m 0.784,0 a 2.352,2.352 0 1 0 -4.015,1.663 2.351,2.351 0 0 0 4.015,-1.663 z m -2.352,-1.991 h 0.032 A 1.969,1.969 0 1 1 10.6,16.354 1.982,1.982 0 0 1 11.981,12.977 Z M 16.781,9.3 H 15.156 7.209 V 21.9 L 7.267,21.952 7.343,22 h 1.549 l 6.272,-0.008 h 1.254 0.212 0.062 l 0.055,-0.063 0.037,-0.087 C 16.8,17.684 16.78,13.427 16.781,9.3 Z M 15.156,21.42 8.887,21.414 C 8.818,17.756 8.851,14.094 8.845,10.435 l 6.311,0.045 z M 14.701,8.956 H 14.96 L 14.929,5.538 H 14.701 Z M 8.845,5.194 V 5.193 h 6.272 1.567 L 16.781,5.19 16.786,2 15.117,2.002 H 8.845 L 7.214,2.009 7.215,5.201 Z m 0.816,1.99 a 2.794,2.794 0 0 0 0.493,1.45 H 13.76 A 2.93,2.93 0 0 0 14.27,7.184 2.362,2.362 0 0 0 13.76,5.773 H 10.154 A 2.351,2.351 0 0 0 9.661,7.184 Z m 2.32,-1.176 A 1.176,1.176 0 1 1 11.15,8.015 1.177,1.177 0 0 1 11.981,6.008 Z m 0.005,1.824 v 0 a 0.667,0.667 0 0 0 0.666,-0.667 v 0 0 A 0.667,0.667 0 0 0 11.985,6.499 v 0 A 0.667,0.667 0 0 0 11.32,7.167 v 0 a 0.666,0.666 0 0 0 0.666,0.665 z M 15.162,8.956 16.781,8.96 16.782,5.536 15.15,5.531 Z"/>

</svg>
